svg/system/mind_map_line.svg

<svg xmlns="http://www.w3.org/2000/svg" width="24" height="24" viewBox="0 0 24 24"><g fill="none" fill-rule="evenodd"><path d="M24,0 L24,24 L0,24 L0,0 L24,0 Z M12.5935,23.2578 L12.5819,23.2595 L12.5109,23.295 L12.4919,23.2987 L12.4767,23.295 L12.4057,23.2595 C12.3958,23.2564 12.387,23.259 12.3821,23.2649 L12.378,23.2758 L12.3609,23.7031 L12.3659,23.7235 L12.3769,23.7357 L12.4805,23.8097 L12.4953,23.8136 L12.5071,23.8097 L12.6107,23.7357 L12.6233,23.7197 L12.6267,23.7031 L12.6096,23.2758 C12.6076,23.2657 12.601,23.2593 12.5935,23.2578 Z M12.8584,23.1453 L12.8445,23.1473 L12.6598,23.2397 L12.6499,23.2499 L12.6472,23.2611 L12.6651,23.6906 L12.6699,23.7034 L12.6784,23.7105 L12.8793,23.8032 C12.8914,23.8069 12.9022,23.803 12.9078,23.7952 L12.9118,23.7812 L12.8777,23.1665 C12.8753,23.1546 12.8674,23.147 12.8584,23.1453 Z M12.143,23.1473 C12.1332,23.1424 12.1222,23.1453 12.1156,23.1526 L12.1099,23.1665 L12.0758,23.7812 C12.0751,23.7927 12.0828,23.8019 12.0926,23.8046 L12.1083,23.8032 L12.3092,23.7105 L12.3186,23.7024 L12.3225,23.6906 L12.3404,23.2611 L12.3372,23.2485 L12.3278,23.2397 L12.143,23.1473 Z"/><path fill="#09244B" d="M14,2 C15.6569,2 17,3.34315 17,5 C17,6.63873 15.6861,7.97058 14.0543,7.99952 L13.8363,8.65326 C14.8601,9.27635 15.6154,10.2966 15.8885,11.5 L17.208,11.5 C17.5938,10.617 18.4748,10 19.5,10 C20.8807,10 22,11.1193 22,12.5 C22,13.8807 20.8807,15 19.5,15 C18.4748,15 17.5938,14.383 17.208,13.5 L15.8885,13.5 C15.72,14.2426 15.3679,14.9154 14.8824,15.4682 L15.5864,16.1722 C15.8694,16.061 16.1776,16 16.5,16 C17.8807,16 19,17.1193 19,18.5 C19,19.8807 17.8807,21 16.5,21 C15.1193,21 14,19.8807 14,18.5 C14,18.1776 14.061,17.8694 14.1722,17.5864 L13.2379,16.6521 C12.7032,16.8762 12.1161,17 11.5,17 C10.7886,17 10.1157,16.8349 9.51759,16.5409 L8.6466,17.5861 C8.87212,18.0074 9,18.4888 9,19 C9,20.6569 7.65685,22 6,22 C4.34315,22 3,20.6569 3,19 C3,17.3431 4.34315,16 6,16 C6.41443,16 6.80923,16.084 7.1683,16.236 L7.96301,15.2823 C7.35986,14.5167 7,13.5504 7,12.5 C7,11.7652 7.17613,11.0715 7.48848,10.4588 L6.62045,9.73547 C6.28342,9.90472 5.90284,10 5.5,10 C4.11929,10 3,8.88071 3,7.5 C3,6.11929 4.11929,5 5.5,5 C6.88071,5 8,6.11929 8,7.5 C8,7.74267 7.96542,7.97726 7.90093,8.19912 L8.76941,8.92285 C9.52667,8.34392 10.4732,8 11.5,8 C11.6481,8 11.7945,8.00715 11.9389,8.02113 L12.1568,7.36719 C11.4528,6.8182 11,5.96198 11,5 C11,3.34315 12.3431,2 14,2 Z M6,18 C5.44772,18 5,18.4477 5,19 C5,19.5523 5.44772,20 6,20 C6.55228,20 7,19.5523 7,19 C7,18.4477 6.55228,18 6,18 Z M16.5,18 C16.2239,18 16,18.2239 16,18.5 C16,18.7761 16.2239,19 16.5,19 C16.7761,19 17,18.7761 17,18.5 C17,18.2239 16.7761,18 16.5,18 Z M11.5,10 C10.1193,10 9,11.1193 9,12.5 C9,13.8807 10.1193,15 11.5,15 C12.8807,15 14,13.8807 14,12.5 C14,11.1193 12.8807,10 11.5,10 Z M19.5,12 C19.2239,12 19,12.2239 19,12.5 C19,12.7761 19.2239,13 19.5,13 C19.7761,13 20,12.7761 20,12.5 C20,12.2239 19.7761,12 19.5,12 Z M5.5,7 C5.22386,7 5,7.22386 5,7.5 C5,7.77614 5.22386,8 5.5,8 C5.77614,8 6,7.77614 6,7.5 C6,7.22386 5.77614,7 5.5,7 Z M14,4 C13.4477,4 13,4.44772 13,5 C13,5.55228 13.4477,6 14,6 C14.5523,6 15,5.55228 15,5 C15,4.44772 14.5523,4 14,4 Z"/></g></svg>

<svg xmlns="http://www.w3.org/2000/svg" width="24" height="24"><g fill="none" fill-rule="evenodd"><path d="M24 0v24H0V0zM12.594 23.258l-.012.002-.071.035-.02.004-.014-.004-.071-.036c-.01-.003-.019 0-.024.006l-.004.01-.017.428.005.02.01.013.104.074.015.004.012-.004.104-.074.012-.016.004-.017-.017-.427c-.002-.01-.009-.017-.016-.018m.264-.113-.014.002-.184.093-.01.01-.003.011.018.43.005.012.008.008.201.092c.012.004.023 0 .029-.008l.004-.014-.034-.614c-.003-.012-.01-.02-.02-.022m-.715.002a.023.023 0 0 0-.027.006l-.006.014-.034.614c0 .012.007.02.017.024l.015-.002.201-.093.01-.008.003-.011.018-.43-.003-.012-.01-.01z"/><path fill="#09244B" d="M14 2a3 3 0 0 1 .054 6l-.218.653A4.507 4.507 0 0 1 15.89 11.5h1.319a2.5 2.5 0 1 1 0 2h-1.32a4.487 4.487 0 0 1-1.006 1.968l.704.704a2.5 2.5 0 1 1-1.414 1.414l-.934-.934A4.485 4.485 0 0 1 11.5 17a4.481 4.481 0 0 1-1.982-.46l-.871 1.046a3 3 0 1 1-1.478-1.35l.794-.954A4.48 4.48 0 0 1 7 12.5c0-.735.176-1.428.488-2.041l-.868-.724A2.5 2.5 0 1 1 7.9 8.2l.87.724a4.48 4.48 0 0 1 3.169-.902l.218-.654A3 3 0 0 1 14 2M6 18a1 1 0 1 0 0 2 1 1 0 0 0 0-2m10.5 0a.5.5 0 1 0 0 1 .5.5 0 0 0 0-1m-5-8a2.5 2.5 0 1 0 0 5 2.5 2.5 0 0 0 0-5m8 2a.5.5 0 1 0 0 1 .5.5 0 0 0 0-1m-14-5a.5.5 0 1 0 0 1 .5.5 0 0 0 0-1M14 4a1 1 0 1 0 0 2 1 1 0 0 0 0-2"/></g></svg>
